images/Stromschlag.svg

<svg version="1.2" baseProfile="tiny" width="557.367" height="482.306" viewBox="2880 2299 14747 12761" preserveAspectRatio="xMidYMid" fill-rule="evenodd" stroke-width="28.222" stroke-linejoin="round" xmlns="http://www.w3.org/2000/svg"><defs class="ClipPathGroup"><clipPath id="a"><path d="M2880 2299h14747v12761H2880z"/></clipPath></defs><g class="SlideGroup"><g class="Slide" clip-path="url(#a)"><g class="Page"><g class="com.sun.star.drawing.CustomShape"><path fill="#FF8080" d="M14299 3600c396 0 700 303 700 699s-304 700-700 700-699-304-699-700 303-699 699-699zm-699 0zm1401 1401z"/><path fill="none" stroke="#C00" stroke-width="106" d="M14299 3600c396 0 700 303 700 699s-304 700-700 700-699-304-699-700 303-699 699-699z"/></g><path fill="none" stroke="#666" stroke-width="106" d="M14300 5000v900" class="com.sun.star.drawing.LineShape"/><path fill="none" stroke="#666" stroke-width="106" d="M14300 5900l-3500-400-100-500M14300 5900l-3400 900-100-300" class="com.sun.star.drawing.PolyLineShape"/><path fill="none" stroke="#666" stroke-width="106" d="M14300 5900v3400" class="com.sun.star.drawing.LineShape"/><path fill="none" stroke="#666" stroke-width="106" d="M14300 9200l-1800 4300-600-100M14300 9200l1500 4200-500 100" class="com.sun.star.drawing.PolyLineShape"/><path fill="none" stroke="#000" stroke-width="106" stroke-linecap="round" d="M4000 5000h7000" class="com.sun.star.drawing.LineShape"/><g fill="none" stroke="#000" stroke-width="106" stroke-linecap="round" class="com.sun.star.drawing.LineShape"><path d="M4000 5900h530M4710 5900h43M4933 5900h530M5643 5900h42M5866 5900h530M6576 5900h42M6798 5900h530M7509 5900h42M7731 5900h530M8441 5900h43M8664 5900h530M9374 5900h43M9597 5900h530M10307 5900h42M10530 5900h470"/></g><g class="com.sun.star.drawing.TextShape"><text class="TextShape"><tspan class="TextParagraph" font-family="Liberation Sans, sans-serif" font-size="847" font-weight="700"><tspan class="TextPosition" x="3136" y="5296"><tspan>L</tspan></tspan></tspan></text></g><g class="com.sun.star.drawing.TextShape"><text class="TextShape"><tspan class="TextParagraph" font-family="Liberation Sans, sans-serif" font-size="847" font-weight="700"><tspan class="TextPosition" x="3130" y="6239"><tspan>N</tspan></tspan></tspan></text></g><g class="com.sun.star.drawing.CustomShape"><defs><pattern id="b" x="3200" y="13560" width="14401" height="1501" patternUnits="userSpaceOnUse"><g stroke="#000"><path d="M3200 14219l659-659M3200 14930l1370-1370M3781 15060l1500-1500M4492 15060l1500-1500M5203 15060l1500-1500M5914 15060l1500-1500M6625 15060l1500-1500M7336 15060l1500-1500M8047 15060l1500-1500M8758 15060l1500-1500M9469 15060l1500-1500M10180 15060l1500-1500M10891 15060l1500-1500M11602 15060l1500-1500M12313 15060l1500-1500M13024 15060l1500-1500M13735 15060l1500-1500M14446 15060l1500-1500M15157 15060l1500-1500M15868 15060l1500-1500M16579 15060l1021-1021M17290 15060l310-310" transform="translate(-3200 -13560)"/></g></pattern></defs><path d="M10400 15060H3200v-1500h14400v1500h-7200z" fill="url(#b)"/></g><path fill="none" stroke="#000" stroke-width="53" d="M3100 13500h14500" class="com.sun.star.drawing.LineShape"/><g class="com.sun.star.drawing.CustomShape"><path fill="#FF0" d="M12401 2895l-1180 154 802-719-391-30-951 1037 1131-150-804 761-130-319-278 872 917-246-329-138 1213-1222zm-1801-595zm1801 2201z"/><path fill="none" stroke="#F30" d="M12401 2895l-1180 154 802-719-391-30-951 1037 1131-150-804 761-130-319-278 872 917-246-329-138 1213-1222zM10600 2300zM12401 4501z"/></g><g class="com.sun.star.drawing.CustomShape"><path fill="#C00" d="M14316 7500c-17-131-64-292-182-395-195-169-308-150-435-375-70-150-46-413 215-512 269-78 377 116 402 155 25-39 131-233 401-155 262 99 285 362 215 512-128 225-241 206-436 375-117 103-165 264-180 395zm-651-1300zm1301 1301z"/><path fill="none" stroke="#F00" d="M14316 7500c-17-131-64-292-182-395-195-169-308-150-435-375-70-150-46-413 215-512 269-78 377 116 402 155 25-39 131-233 401-155 262 99 285 362 215 512-128 225-241 206-436 375-117 103-165 264-180 395zM13665 6200zM14966 7501z"/></g><g class="com.sun.star.drawing.CustomShape"><path fill="#FF0" d="M16101 6052l-590 90 401-424-196-18-476 613 566-89-402 450-65-189-139 516 458-146-164-81 607-722zm-901-352zm901 1301z"/><path fill="none" stroke="#F30" d="M16101 6052l-590 90 401-424-196-18-476 613 566-89-402 450-65-189-139 516 458-146-164-81 607-722zM15200 5700zM16101 7001z"/></g><g class="com.sun.star.drawing.CustomShape"><path fill="#FF0" d="M13701 6852l-590 90 401-424-196-18-476 613 566-89-402 450-65-189-139 516 458-146-164-81 607-722zm-901-352zm901 1301z"/><path fill="none" stroke="#F30" d="M13701 6852l-590 90 401-424-196-18-476 613 566-89-402 450-65-189-139 516 458-146-164-81 607-722zM12800 6500zM13701 7801z"/></g><g class="com.sun.star.drawing.CustomShape"><path fill="#FF0" d="M15501 7452l-590 90 401-424-196-18-476 613 566-89-402 450-65-189-139 516 458-146-164-81 607-722zm-901-352zm901 1301z"/><path fill="none" stroke="#F30" d="M15501 7452l-590 90 401-424-196-18-476 613 566-89-402 450-65-189-139 516 458-146-164-81 607-722zM14600 7100zM15501 8401z"/></g></g></g></g></svg>

<?xml version="1.0" encoding="UTF-8"?>

<svg version="1.2" baseProfile="tiny" width="147.47mm" height="127.61mm" viewBox="2880 2299 14747 12761" preserveAspectRatio="xMidYMid" fill-rule="evenodd" stroke-width="28.222" stroke-linejoin="round" xmlns="http://www.w3.org/2000/svg" xmlns:ooo="http://xml.openoffice.org/svg/export" xmlns:xlink="http://www.w3.org/1999/xlink" xml:space="preserve">
 <defs class="ClipPathGroup">
  <clipPath id="presentation_clip_path" clipPathUnits="userSpaceOnUse">
   <rect x="2880" y="2299" width="14747" height="12761"/>
  </clipPath>
 </defs>
 <defs>
  <font id="EmbeddedFont_1" horiz-adv-x="2048">
   <font-face font-family="Liberation Sans embedded" units-per-em="2048" font-weight="bold" font-style="normal" ascent="1852" descent="423"/>
   <missing-glyph horiz-adv-x="2048" d="M 0,0 L 2047,0 2047,2047 0,2047 0,0 Z"/>
   <glyph unicode="N" horiz-adv-x="1218" d="M 995,0 L 381,1085 C 384,1056 387,1026 390,997 393,972 395,944 397,915 398,886 399,858 399,831 L 399,0 137,0 137,1409 474,1409 1097,315 C 1094,343 1091,372 1088,403 1085,429 1083,458 1082,491 1080,524 1079,557 1079,590 L 1079,1409 1341,1409 1341,0 995,0 Z"/>
   <glyph unicode="L" horiz-adv-x="1060" d="M 137,0 L 137,1409 432,1409 432,228 1188,228 1188,0 137,0 Z"/>
  </font>
 </defs>
 <defs class="TextShapeIndex">
  <g ooo:slide="id1" ooo:id-list="id3 id4 id5 id6 id7 id8 id9 id10 id11 id12 id13 id14 id15 id16 id17 id18 id19 id20"/>
 </defs>
 <defs class="EmbeddedBulletChars">
  <g id="bullet-char-template(57356)" transform="scale(0.00048828125,-0.00048828125)">
   <path d="M 580,1141 L 1163,571 580,0 -4,571 580,1141 Z"/>
  </g>
  <g id="bullet-char-template(57354)" transform="scale(0.00048828125,-0.00048828125)">
   <path d="M 8,1128 L 1137,1128 1137,0 8,0 8,1128 Z"/>
  </g>
  <g id="bullet-char-template(10146)" transform="scale(0.00048828125,-0.00048828125)">
   <path d="M 174,0 L 602,739 174,1481 1456,739 174,0 Z M 1358,739 L 309,1346 659,739 1358,739 Z"/>
  </g>
  <g id="bullet-char-template(10132)" transform="scale(0.00048828125,-0.00048828125)">
   <path d="M 2015,739 L 1276,0 717,0 1260,543 174,543 174,936 1260,936 717,1481 1274,1481 2015,739 Z"/>
  </g>
  <g id="bullet-char-template(10007)" transform="scale(0.00048828125,-0.00048828125)">
   <path d="M 0,-2 C -7,14 -16,27 -25,37 L 356,567 C 262,823 215,952 215,954 215,979 228,992 255,992 264,992 276,990 289,987 310,991 331,999 354,1012 L 381,999 492,748 772,1049 836,1024 860,1049 C 881,1039 901,1025 922,1006 886,937 835,863 770,784 769,783 710,716 594,584 L 774,223 C 774,196 753,168 711,139 L 727,119 C 717,90 699,76 672,76 641,76 570,178 457,381 L 164,-76 C 142,-110 111,-127 72,-127 30,-127 9,-110 8,-76 1,-67 -2,-52 -2,-32 -2,-23 -1,-13 0,-2 Z"/>
  </g>
  <g id="bullet-char-template(10004)" transform="scale(0.00048828125,-0.00048828125)">
   <path d="M 285,-33 C 182,-33 111,30 74,156 52,228 41,333 41,471 41,549 55,616 82,672 116,743 169,778 240,778 293,778 328,747 346,684 L 369,508 C 377,444 397,411 428,410 L 1163,1116 C 1174,1127 1196,1133 1229,1133 1271,1133 1292,1118 1292,1087 L 1292,965 C 1292,929 1282,901 1262,881 L 442,47 C 390,-6 338,-33 285,-33 Z"/>
  </g>
  <g id="bullet-char-template(9679)" transform="scale(0.00048828125,-0.00048828125)">
   <path d="M 813,0 C 632,0 489,54 383,161 276,268 223,411 223,592 223,773 276,916 383,1023 489,1130 632,1184 813,1184 992,1184 1136,1130 1245,1023 1353,916 1407,772 1407,592 1407,412 1353,268 1245,161 1136,54 992,0 813,0 Z"/>
  </g>
  <g id="bullet-char-template(8226)" transform="scale(0.00048828125,-0.00048828125)">
   <path d="M 346,457 C 273,457 209,483 155,535 101,586 74,649 74,723 74,796 101,859 155,911 209,963 273,989 346,989 419,989 480,963 531,910 582,859 608,796 608,723 608,648 583,586 532,535 482,483 420,457 346,457 Z"/>
  </g>
  <g id="bullet-char-template(8211)" transform="scale(0.00048828125,-0.00048828125)">
   <path d="M -4,459 L 1135,459 1135,606 -4,606 -4,459 Z"/>
  </g>
 </defs>
 <defs class="TextEmbeddedBitmaps"/>
 <g class="SlideGroup">
  <g>
   <g id="id1" class="Slide" clip-path="url(#presentation_clip_path)">
    <g class="Page">
     <g class="com.sun.star.drawing.CustomShape">
      <g id="id3">
       <path fill="rgb(255,128,128)" stroke="none" d="M 14299,3600 C 14695,3600 14999,3903 14999,4299 14999,4695 14695,4999 14299,4999 13903,4999 13600,4695 13600,4299 13600,3903 13903,3600 14299,3600 Z M 13600,3600 L 13600,3600 Z M 15001,5001 L 15001,5001 Z"/>
       <path fill="none" stroke="rgb(204,0,0)" stroke-width="106" stroke-linejoin="round" d="M 14299,3600 C 14695,3600 14999,3903 14999,4299 14999,4695 14695,4999 14299,4999 13903,4999 13600,4695 13600,4299 13600,3903 13903,3600 14299,3600 Z"/>
      </g>
     </g>
     <g class="com.sun.star.drawing.LineShape">
      <g id="id4">
       <path fill="none" stroke="rgb(102,102,102)" stroke-width="106" stroke-linejoin="round" d="M 14300,5000 L 14300,5900"/>
      </g>
     </g>
     <g class="com.sun.star.drawing.PolyLineShape">
      <g id="id5">
       <path fill="none" stroke="rgb(102,102,102)" stroke-width="106" stroke-linejoin="round" d="M 14300,5900 L 10800,5500 10700,5000"/>
      </g>
     </g>
     <g class="com.sun.star.drawing.PolyLineShape">
      <g id="id6">
       <path fill="none" stroke="rgb(102,102,102)" stroke-width="106" stroke-linejoin="round" d="M 14300,5900 L 10900,6800 10800,6500"/>
      </g>
     </g>
     <g class="com.sun.star.drawing.LineShape">
      <g id="id7">
       <path fill="none" stroke="rgb(102,102,102)" stroke-width="106" stroke-linejoin="round" d="M 14300,5900 L 14300,9300"/>
      </g>
     </g>
     <g class="com.sun.star.drawing.PolyLineShape">
      <g id="id8">
       <path fill="none" stroke="rgb(102,102,102)" stroke-width="106" stroke-linejoin="round" d="M 14300,9200 L 12500,13500 11900,13400"/>
      </g>
     </g>
     <g class="com.sun.star.drawing.PolyLineShape">
      <g id="id9">
       <path fill="none" stroke="rgb(102,102,102)" stroke-width="106" stroke-linejoin="round" d="M 14300,9200 L 15800,13400 15300,13500"/>
      </g>
     </g>
     <g class="com.sun.star.drawing.LineShape">
      <g id="id10">
       <path fill="none" stroke="rgb(0,0,0)" stroke-width="106" stroke-linejoin="round" stroke-linecap="round" d="M 4000,5000 L 11000,5000"/>
      </g>
     </g>
     <g class="com.sun.star.drawing.LineShape">
      <g id="id11">
       <path fill="none" stroke="rgb(0,0,0)" stroke-width="106" stroke-linejoin="round" stroke-linecap="round" d="M 4000,5900 L 4530,5900"/>
       <path fill="none" stroke="rgb(0,0,0)" stroke-width="106" stroke-linejoin="round" stroke-linecap="round" d="M 4710,5900 L 4753,5900"/>
       <path fill="none" stroke="rgb(0,0,0)" stroke-width="106" stroke-linejoin="round" stroke-linecap="round" d="M 4933,5900 L 5463,5900"/>
       <path fill="none" stroke="rgb(0,0,0)" stroke-width="106" stroke-linejoin="round" stroke-linecap="round" d="M 5643,5900 L 5685,5900"/>
       <path fill="none" stroke="rgb(0,0,0)" stroke-width="106" stroke-linejoin="round" stroke-linecap="round" d="M 5866,5900 L 6396,5900"/>
       <path fill="none" stroke="rgb(0,0,0)" stroke-width="106" stroke-linejoin="round" stroke-linecap="round" d="M 6576,5900 L 6618,5900"/>
       <path fill="none" stroke="rgb(0,0,0)" stroke-width="106" stroke-linejoin="round" stroke-linecap="round" d="M 6798,5900 L 7328,5900"/>
       <path fill="none" stroke="rgb(0,0,0)" stroke-width="106" stroke-linejoin="round" stroke-linecap="round" d="M 7509,5900 L 7551,5900"/>
       <path fill="none" stroke="rgb(0,0,0)" stroke-width="106" stroke-linejoin="round" stroke-linecap="round" d="M 7731,5900 L 8261,5900"/>
       <path fill="none" stroke="rgb(0,0,0)" stroke-width="106" stroke-linejoin="round" stroke-linecap="round" d="M 8441,5900 L 8484,5900"/>
       <path fill="none" stroke="rgb(0,0,0)" stroke-width="106" stroke-linejoin="round" stroke-linecap="round" d="M 8664,5900 L 9194,5900"/>
       <path fill="none" stroke="rgb(0,0,0)" stroke-width="106" stroke-linejoin="round" stroke-linecap="round" d="M 9374,5900 L 9417,5900"/>
       <path fill="none" stroke="rgb(0,0,0)" stroke-width="106" stroke-linejoin="round" stroke-linecap="round" d="M 9597,5900 L 10127,5900"/>
       <path fill="none" stroke="rgb(0,0,0)" stroke-width="106" stroke-linejoin="round" stroke-linecap="round" d="M 10307,5900 L 10349,5900"/>
       <path fill="none" stroke="rgb(0,0,0)" stroke-width="106" stroke-linejoin="round" stroke-linecap="round" d="M 10530,5900 L 11000,5900"/>
      </g>
     </g>
     <g class="com.sun.star.drawing.TextShape">
      <g id="id12">
       <text class="TextShape"><tspan class="TextParagraph" font-family="Liberation Sans, sans-serif" font-size="847px" font-weight="700"><tspan class="TextPosition" x="3136" y="5296"/><tspan class="TextPosition" x="3136" y="5296"><tspan fill="rgb(0,0,0)" stroke="none">L</tspan></tspan></tspan></text>
      </g>
     </g>
     <g class="com.sun.star.drawing.TextShape">
      <g id="id13">
       <text class="TextShape"><tspan class="TextParagraph" font-family="Liberation Sans, sans-serif" font-size="847px" font-weight="700"><tspan class="TextPosition" x="3130" y="6239"/><tspan class="TextPosition" x="3130" y="6239"><tspan fill="rgb(0,0,0)" stroke="none">N</tspan></tspan></tspan></text>
      </g>
     </g>
     <g class="com.sun.star.drawing.CustomShape">
      <g id="id14">
       <g>
        <defs>
         <pattern id="pattern1" x="3200" y="13560" width="14401" height="1501" patternUnits="userSpaceOnUse">
          <g transform="translate(-3200,-13560)">
           <line fill="rgb(0,0,0)" stroke="rgb(0,0,0)" x1="3200" y1="14219" x2="3859" y2="13560"/>
           <line fill="rgb(0,0,0)" stroke="rgb(0,0,0)" x1="3200" y1="14930" x2="4570" y2="13560"/>
           <line fill="rgb(0,0,0)" stroke="rgb(0,0,0)" x1="3781" y1="15060" x2="5281" y2="13560"/>
           <line fill="rgb(0,0,0)" stroke="rgb(0,0,0)" x1="4492" y1="15060" x2="5992" y2="13560"/>
           <line fill="rgb(0,0,0)" stroke="rgb(0,0,0)" x1="5203" y1="15060" x2="6703" y2="13560"/>
           <line fill="rgb(0,0,0)" stroke="rgb(0,0,0)" x1="5914" y1="15060" x2="7414" y2="13560"/>
           <line fill="rgb(0,0,0)" stroke="rgb(0,0,0)" x1="6625" y1="15060" x2="8125" y2="13560"/>
           <line fill="rgb(0,0,0)" stroke="rgb(0,0,0)" x1="7336" y1="15060" x2="8836" y2="13560"/>
           <line fill="rgb(0,0,0)" stroke="rgb(0,0,0)" x1="8047" y1="15060" x2="9547" y2="13560"/>
           <line fill="rgb(0,0,0)" stroke="rgb(0,0,0)" x1="8758" y1="15060" x2="10258" y2="13560"/>
           <line fill="rgb(0,0,0)" stroke="rgb(0,0,0)" x1="9469" y1="15060" x2="10969" y2="13560"/>
           <line fill="rgb(0,0,0)" stroke="rgb(0,0,0)" x1="10180" y1="15060" x2="11680" y2="13560"/>
           <line fill="rgb(0,0,0)" stroke="rgb(0,0,0)" x1="10891" y1="15060" x2="12391" y2="13560"/>
           <line fill="rgb(0,0,0)" stroke="rgb(0,0,0)" x1="11602" y1="15060" x2="13102" y2="13560"/>
           <line fill="rgb(0,0,0)" stroke="rgb(0,0,0)" x1="12313" y1="15060" x2="13813" y2="13560"/>
           <line fill="rgb(0,0,0)" stroke="rgb(0,0,0)" x1="13024" y1="15060" x2="14524" y2="13560"/>
           <line fill="rgb(0,0,0)" stroke="rgb(0,0,0)" x1="13735" y1="15060" x2="15235" y2="13560"/>
           <line fill="rgb(0,0,0)" stroke="rgb(0,0,0)" x1="14446" y1="15060" x2="15946" y2="13560"/>
           <line fill="rgb(0,0,0)" stroke="rgb(0,0,0)" x1="15157" y1="15060" x2="16657" y2="13560"/>
           <line fill="rgb(0,0,0)" stroke="rgb(0,0,0)" x1="15868" y1="15060" x2="17368" y2="13560"/>
           <line fill="rgb(0,0,0)" stroke="rgb(0,0,0)" x1="16579" y1="15060" x2="17600" y2="14039"/>
           <line fill="rgb(0,0,0)" stroke="rgb(0,0,0)" x1="17290" y1="15060" x2="17600" y2="14750"/>
          </g>
         </pattern>
        </defs>
        <path style="fill:url(#pattern1)" d="M 10400,15060 L 3200,15060 3200,13560 17600,13560 17600,15060 10400,15060 Z"/>
       </g>
      </g>
     </g>
     <g class="com.sun.star.drawing.LineShape">
      <g id="id15">
       <path fill="none" stroke="rgb(0,0,0)" stroke-width="53" stroke-linejoin="round" d="M 3100,13500 L 17600,13500"/>
      </g>
     </g>
     <g class="com.sun.star.drawing.CustomShape">
      <g id="id16">
       <path fill="rgb(255,255,0)" stroke="none" d="M 12401,2895 L 11221,3049 12023,2330 11632,2300 10681,3337 11812,3187 11008,3948 10878,3629 10600,4501 11517,4255 11188,4117 12401,2895 12401,2895 12401,2895 Z M 10600,2300 L 10600,2300 Z M 12401,4501 L 12401,4501 Z"/>
       <path fill="none" stroke="rgb(255,51,0)" d="M 12401,2895 L 11221,3049 12023,2330 11632,2300 10681,3337 11812,3187 11008,3948 10878,3629 10600,4501 11517,4255 11188,4117 12401,2895 12401,2895 12401,2895 Z"/>
       <path fill="none" stroke="rgb(255,51,0)" d="M 10600,2300 L 10600,2300 Z"/>
       <path fill="none" stroke="rgb(255,51,0)" d="M 12401,4501 L 12401,4501 Z"/>
      </g>
     </g>
     <g class="com.sun.star.drawing.CustomShape">
      <g id="id17">
       <path fill="rgb(204,0,0)" stroke="none" d="M 14316,7500 C 14299,7369 14252,7208 14134,7105 13939,6936 13826,6955 13699,6730 13629,6580 13653,6317 13914,6218 14183,6140 14291,6334 14316,6373 14341,6334 14447,6140 14717,6218 14979,6317 15002,6580 14932,6730 14804,6955 14691,6936 14496,7105 14379,7208 14331,7369 14316,7500 L 14316,7500 Z M 13665,6200 L 13665,6200 Z M 14966,7501 L 14966,7501 Z"/>
       <path fill="none" stroke="rgb(255,0,0)" d="M 14316,7500 C 14299,7369 14252,7208 14134,7105 13939,6936 13826,6955 13699,6730 13629,6580 13653,6317 13914,6218 14183,6140 14291,6334 14316,6373 14341,6334 14447,6140 14717,6218 14979,6317 15002,6580 14932,6730 14804,6955 14691,6936 14496,7105 14379,7208 14331,7369 14316,7500 Z"/>
       <path fill="none" stroke="rgb(255,0,0)" d="M 13665,6200 L 13665,6200 Z"/>
       <path fill="none" stroke="rgb(255,0,0)" d="M 14966,7501 L 14966,7501 Z"/>
      </g>
     </g>
     <g class="com.sun.star.drawing.CustomShape">
      <g id="id18">
       <path fill="rgb(255,255,0)" stroke="none" d="M 16101,6052 L 15511,6142 15912,5718 15716,5700 15240,6313 15806,6224 15404,6674 15339,6485 15200,7001 15658,6855 15494,6774 16101,6052 16101,6052 16101,6052 Z M 15200,5700 L 15200,5700 Z M 16101,7001 L 16101,7001 Z"/>
       <path fill="none" stroke="rgb(255,51,0)" d="M 16101,6052 L 15511,6142 15912,5718 15716,5700 15240,6313 15806,6224 15404,6674 15339,6485 15200,7001 15658,6855 15494,6774 16101,6052 16101,6052 16101,6052 Z"/>
       <path fill="none" stroke="rgb(255,51,0)" d="M 15200,5700 L 15200,5700 Z"/>
       <path fill="none" stroke="rgb(255,51,0)" d="M 16101,7001 L 16101,7001 Z"/>
      </g>
     </g>
     <g class="com.sun.star.drawing.CustomShape">
      <g id="id19">
       <path fill="rgb(255,255,0)" stroke="none" d="M 13701,6852 L 13111,6942 13512,6518 13316,6500 12840,7113 13406,7024 13004,7474 12939,7285 12800,7801 13258,7655 13094,7574 13701,6852 13701,6852 13701,6852 Z M 12800,6500 L 12800,6500 Z M 13701,7801 L 13701,7801 Z"/>
       <path fill="none" stroke="rgb(255,51,0)" d="M 13701,6852 L 13111,6942 13512,6518 13316,6500 12840,7113 13406,7024 13004,7474 12939,7285 12800,7801 13258,7655 13094,7574 13701,6852 13701,6852 13701,6852 Z"/>
       <path fill="none" stroke="rgb(255,51,0)" d="M 12800,6500 L 12800,6500 Z"/>
       <path fill="none" stroke="rgb(255,51,0)" d="M 13701,7801 L 13701,7801 Z"/>
      </g>
     </g>
     <g class="com.sun.star.drawing.CustomShape">
      <g id="id20">
       <path fill="rgb(255,255,0)" stroke="none" d="M 15501,7452 L 14911,7542 15312,7118 15116,7100 14640,7713 15206,7624 14804,8074 14739,7885 14600,8401 15058,8255 14894,8174 15501,7452 15501,7452 15501,7452 Z M 14600,7100 L 14600,7100 Z M 15501,8401 L 15501,8401 Z"/>
       <path fill="none" stroke="rgb(255,51,0)" d="M 15501,7452 L 14911,7542 15312,7118 15116,7100 14640,7713 15206,7624 14804,8074 14739,7885 14600,8401 15058,8255 14894,8174 15501,7452 15501,7452 15501,7452 Z"/>
       <path fill="none" stroke="rgb(255,51,0)" d="M 14600,7100 L 14600,7100 Z"/>
       <path fill="none" stroke="rgb(255,51,0)" d="M 15501,8401 L 15501,8401 Z"/>
      </g>
     </g>
    </g>
   </g>
  </g>
 </g>
</svg>
